www/assets/icons/engineering.svg

<svg width="24" height="24" viewBox="0 0 24 24" xmlns="http://www.w3.org/2000/svg" fill='currentColor'><path d="M9.05328 15C6.38328 15 1.05328 16.34 1.05328 19V21H17.0533V19C17.0533 16.34 11.7233 15 9.05328 15Z"/><path d="M22.1533 6.84C22.1633 6.73 22.1733 6.62 22.1733 6.5C22.1733 6.38 22.1633 6.27 22.1433 6.16L22.8833 5.58C22.9533 5.53 22.9633 5.43 22.9233 5.36L22.2233 4.15C22.1833 4.07 22.0833 4.05 22.0133 4.07L21.1533 4.42C20.9733 4.28 20.7733 4.17 20.5633 4.08L20.4333 3.15C20.4133 3.06 20.3433 3 20.2533 3H18.8533C18.7633 3 18.6933 3.06 18.6833 3.15L18.5533 4.08C18.3433 4.17 18.1433 4.29 17.9633 4.42L17.0933 4.07C17.0133 4.04 16.9233 4.07 16.8833 4.15L16.1833 5.36C16.1433 5.44 16.1533 5.53 16.2233 5.58L16.9633 6.16C16.9433 6.27 16.9333 6.39 16.9333 6.5C16.9333 6.61 16.9433 6.73 16.9633 6.84L16.2233 7.42C16.1533 7.47 16.1433 7.57 16.1833 7.64L16.8833 8.85C16.9233 8.93 17.0233 8.95 17.0933 8.93L17.9633 8.58C18.1433 8.72 18.3433 8.83 18.5533 8.92L18.6833 9.85C18.6933 9.94 18.7633 10 18.8533 10H20.2533C20.3433 10 20.4133 9.94 20.4233 9.85L20.5533 8.92C20.7633 8.83 20.9633 8.71 21.1433 8.58L22.0133 8.93C22.0933 8.96 22.1833 8.93 22.2233 8.85L22.9233 7.64C22.9633 7.56 22.9533 7.47 22.8833 7.42L22.1533 6.84ZM19.5533 7.75C18.8633 7.75 18.3033 7.19 18.3033 6.5C18.3033 5.81 18.8633 5.25 19.5533 5.25C20.2433 5.25 20.8033 5.81 20.8033 6.5C20.8033 7.19 20.2433 7.75 19.5533 7.75Z"/><path d="M19.9733 11.68L19.4733 10.81C19.4433 10.75 19.3733 10.73 19.3233 10.75L18.7033 11C18.5733 10.9 18.4333 10.82 18.2833 10.76L18.1933 10.1C18.1733 10.04 18.1133 10 18.0533 10H17.0533C16.9933 10 16.9433 10.04 16.9333 10.11L16.8433 10.77C16.6933 10.83 16.5533 10.92 16.4233 11.01L15.8033 10.76C15.7433 10.74 15.6833 10.76 15.6533 10.82L15.1533 11.69C15.1233 11.75 15.1333 11.81 15.1833 11.85L15.7133 12.26C15.7033 12.34 15.6933 12.42 15.6933 12.5C15.6933 12.58 15.7033 12.67 15.7133 12.74L15.1833 13.15C15.1333 13.19 15.1233 13.26 15.1533 13.31L15.6533 14.18C15.6833 14.24 15.7533 14.26 15.8033 14.24L16.4233 13.99C16.5533 14.09 16.6933 14.17 16.8433 14.23L16.9333 14.89C16.9433 14.96 16.9933 15 17.0533 15H18.0533C18.1133 15 18.1733 14.96 18.1733 14.89L18.2633 14.23C18.4133 14.17 18.5533 14.08 18.6833 13.99L19.3033 14.24C19.3633 14.26 19.4233 14.24 19.4533 14.18L19.9533 13.31C19.9833 13.25 19.9733 13.19 19.9233 13.15L19.4033 12.74C19.4133 12.66 19.4233 12.58 19.4233 12.5C19.4233 12.42 19.4133 12.33 19.4033 12.26L19.9333 11.85C19.9833 11.81 19.9933 11.74 19.9733 11.68ZM17.5533 13.33C17.0933 13.33 16.7233 12.95 16.7233 12.5C16.7233 12.04 17.1033 11.67 17.5533 11.67C18.0033 11.67 18.3833 12.05 18.3833 12.5C18.3833 12.96 18.0133 13.33 17.5533 13.33Z"/><path d="M4.79328 9H13.3233C13.5933 9 13.8133 8.78 13.8133 8.51V8.49C13.8133 8.22 13.5933 8 13.3233 8H13.0533C13.0533 6.52 12.2433 5.25 11.0533 4.55V5.5C11.0533 5.78 10.8333 6 10.5533 6C10.2733 6 10.0533 5.78 10.0533 5.5V4.14C9.73328 4.06 9.40328 4 9.05328 4C8.70328 4 8.37328 4.06 8.05328 4.14V5.5C8.05328 5.78 7.83328 6 7.55328 6C7.27328 6 7.05328 5.78 7.05328 5.5V4.55C5.86328 5.25 5.05328 6.52 5.05328 8H4.79328C4.52328 8 4.30328 8.22 4.30328 8.49V8.52C4.30328 8.78 4.52328 9 4.79328 9Z"/><path d="M9.05328 13C10.9133 13 12.4633 11.72 12.9133 10H5.19328C5.64328 11.72 7.19328 13 9.05328 13Z"/></svg>

<svg xmlns="http://www.w3.org/2000/svg" width="24" height="24" viewBox="0 0 24 24" fill='currentColor'><path d="M9.053 15c-2.67 0-8 1.34-8 4v2h16v-2c0-2.66-5.33-4-8-4m13.1-8.16c.01-.11.02-.22.02-.34s-.01-.23-.03-.34l.74-.58c.07-.05.08-.15.04-.22l-.7-1.21c-.04-.08-.14-.1-.21-.08l-.86.35c-.18-.14-.38-.25-.59-.34l-.13-.93a.18.18 0 0 0-.18-.15h-1.4c-.09 0-.16.06-.17.15l-.13.93c-.21.09-.41.21-.59.34l-.87-.35c-.08-.03-.17 0-.21.08l-.7 1.21c-.04.08-.03.17.04.22l.74.58a2 2 0 0 0 0 .68l-.74.58c-.07.05-.08.15-.04.22l.7 1.21c.04.08.14.1.21.08l.87-.35c.18.14.38.25.59.34l.13.93c.01.09.08.15.17.15h1.4c.09 0 .16-.06.17-.15l.13-.93c.21-.09.41-.21.59-.34l.87.35c.08.03.17 0 .21-.08l.7-1.21c.04-.08.03-.17-.04-.22zm-2.6.91a1.25 1.25 0 1 1 .001-2.5 1.25 1.25 0 0 1 0 2.5m.419 3.93-.5-.87c-.03-.06-.1-.08-.15-.06l-.62.25q-.195-.15-.42-.24l-.09-.66a.15.15 0 0 0-.14-.1h-1c-.06 0-.11.04-.12.11l-.09.66c-.15.06-.29.15-.42.24l-.62-.25c-.06-.02-.12 0-.15.06l-.5.87c-.03.06-.02.12.03.16l.53.41c-.01.08-.02.16-.02.24s.01.17.02.24l-.53.41c-.05.04-.06.11-.03.16l.5.87c.03.06.1.08.15.06l.62-.25q.195.15.42.24l.09.66c.01.07.06.11.12.11h1c.06 0 .12-.04.12-.11l.09-.66c.15-.06.29-.15.42-.24l.62.25c.06.02.12 0 .15-.06l.5-.87c.03-.06.02-.12-.03-.16l-.52-.41c.01-.08.02-.16.02-.24s-.01-.17-.02-.24l.53-.41c.05-.04.06-.11.04-.17m-2.42 1.65c-.46 0-.83-.38-.83-.83 0-.46.38-.83.83-.83s.83.38.83.83c0 .46-.37.83-.83.83M4.793 9h8.53c.27 0 .49-.22.49-.49v-.02a.49.49 0 0 0-.49-.49h-.27c0-1.48-.81-2.75-2-3.45v.95c0 .28-.22.5-.5.5s-.5-.22-.5-.5V4.14a4 4 0 0 0-1-.14c-.35 0-.68.06-1 .14V5.5c0 .28-.22.5-.5.5s-.5-.22-.5-.5v-.95c-1.19.7-2 1.97-2 3.45h-.26a.49.49 0 0 0-.49.49v.03c0 .26.22.48.49.48m4.26 4c1.86 0 3.41-1.28 3.86-3h-7.72c.45 1.72 2 3 3.86 3"/></svg>
